Origami/32x32/apps/cisco-anyconnect.svg

<svg width="32" height="32" version="1" xmlns="http://www.w3.org/2000/svg">
 <path d="m16 3c-7.756 0-14 6.244-14 14s6.244 14 14 14 14-6.244 14-14-6.244-14-14-14z" style="opacity:.2"/>
 <path d="m16 2c-7.756 0-14 6.244-14 14s6.244 14 14 14 14-6.244 14-14-6.244-14-14-14z" style="fill:#cccccc"/>
 <path d="M 12 6 A 14 14 0 0 0 4.2832031 8.3300781 C 2.8430144 10.531362 2 13.162004 2 16 C 2 16.731546 2.0725616 17.443858 2.1796875 18.144531 A 10 10 0 0 1 12 10 A 10 10 0 0 1 22 20 A 10 10 0 0 1 13.855469 29.820312 C 14.556142 29.927438 15.268454 30 16 30 C 18.839559 30 21.47181 29.156492 23.673828 27.714844 A 14 14 0 0 0 26 20 A 14 14 0 0 0 12 6 z" style="fill:#318bcf"/>
 <path d="m16.208984 3.015625a14 14 0 0 0 -4.208984 9.990234 14 14 0 0 0 12.75 13.929688c1.441914-1.153516 2.651616-2.581997 3.542969-4.214844a10 10 0 0 1 -2.292969 0.285156 10 10 0 0 1 -10 -10 10 10 0 0 1 5.453125 -8.9042965c-1.613551-0.6793705-3.384594-1.0586963-5.244141-1.0859375z" style="opacity:.2"/>
 <path d="M 16.208984 2.0097656 A 14 14 0 0 0 12 12 A 14 14 0 0 0 25.814453 25.994141 C 27.090424 24.74114 28.124238 23.245013 28.845703 21.578125 A 10 10 0 0 1 26 22 A 10 10 0 0 1 16 12 A 10 10 0 0 1 21.453125 3.0957031 C 19.839574 2.4163326 18.068531 2.0370068 16.208984 2.0097656 z" style="fill:#7bc450"/>
 <path d="M 16 2 C 8.244 2 2 8.244 2 16 C 2 16.168842 2.0195214 16.33264 2.0253906 16.5 C 2.2891326 8.9794325 8.4128418 3 16 3 C 23.587158 3 29.710867 8.9794325 29.974609 16.5 C 29.980479 16.33264 30 16.168842 30 16 C 30 8.244 23.756 2 16 2 z" style="fill:#ffffff;opacity:.1"/>
</svg>

<svg xmlns="http://www.w3.org/2000/svg" width="32" height="32" version="1">
 <path style="opacity:0.2" d="M 16,3 C 8.244,3 2,9.244 2,17 2,24.756 8.244,31 16,31 23.756,31 30,24.756 30,17 30,9.244 23.756,3 16,3 Z"/>
 <path style="fill:#cccccc" d="M 16,2 C 8.244,2 2,8.244 2,16 2,23.756 8.244,30 16,30 23.756,30 30,23.756 30,16 30,8.244 23.756,2 16,2 Z"/>
 <path style="fill:#318bcf" d="M 12 6 A 14 14 0 0 0 4.2832031 8.3300781 C 2.8430144 10.531362 2 13.162004 2 16 C 2 16.731546 2.0725616 17.443858 2.1796875 18.144531 A 10 10 0 0 1 12 10 A 10 10 0 0 1 22 20 A 10 10 0 0 1 13.855469 29.820312 C 14.556142 29.927438 15.268454 30 16 30 C 18.839559 30 21.47181 29.156492 23.673828 27.714844 A 14 14 0 0 0 26 20 A 14 14 0 0 0 12 6 z"/>
 <path style="opacity:0.2" d="M 16.208984 3.015625 A 14 14 0 0 0 12 13.005859 A 14 14 0 0 0 24.75 26.935547 C 26.191914 25.782031 27.401616 24.35355 28.292969 22.720703 A 10 10 0 0 1 26 23.005859 A 10 10 0 0 1 16 13.005859 A 10 10 0 0 1 21.453125 4.1015625 C 19.839574 3.422192 18.068531 3.0428662 16.208984 3.015625 z"/>
 <path style="fill:#7bc450" d="M 16.208984 2.0097656 A 14 14 0 0 0 12 12 A 14 14 0 0 0 25.814453 25.994141 C 27.090424 24.74114 28.124238 23.245013 28.845703 21.578125 A 10 10 0 0 1 26 22 A 10 10 0 0 1 16 12 A 10 10 0 0 1 21.453125 3.0957031 C 19.839574 2.4163326 18.068531 2.0370068 16.208984 2.0097656 z"/>
 <path style="fill:#ffffff;opacity:0.1" d="M 16 2 C 8.244 2 2 8.244 2 16 C 2 16.168842 2.0195214 16.33264 2.0253906 16.5 C 2.2891326 8.9794325 8.4128418 3 16 3 C 23.587158 3 29.710867 8.9794325 29.974609 16.5 C 29.980479 16.33264 30 16.168842 30 16 C 30 8.244 23.756 2 16 2 z"/>
</svg>
